shared/img/tn-outbrain.svg

<?xml version="1.0" encoding="UTF-8"?>
<svg width="16px" height="16px" viewBox="0 0 16 16" version="1.1" xmlns="http://www.w3.org/2000/svg" xmlns:xlink="http://www.w3.org/1999/xlink">
    <!-- Generator: sketchtool 47.1 (45422) - http://www.bohemiancoding.com/sketch -->
    <title>F5D64B40-F30A-4954-80F0-4F7CD21A32BD</title>
    <desc>Created with sketchtool.</desc>
    <defs></defs>
    <g id="V4--RC-Updates" stroke="none" stroke-width="1" fill="none" fill-rule="evenodd">
        <g id="ASSETS--Pill-Icons" transform="translate(-180.000000, -289.000000)" fill-rule="nonzero" fill="#FFFFFF">
            <g id="outbrain" transform="translate(180.000000, 289.000000)">
                <path d="M8.11294118,15.5294118 C6.99099126,15.5659858 5.87597172,15.3404038 4.85647059,14.8705882 C3.41653429,14.2398575 2.22073039,13.1580183 1.44941176,11.7882353 C1.03871733,11.0814418 0.752215806,10.3094793 0.602352941,9.50588235 C0.434519221,8.57284363 0.426562684,7.61805912 0.578823529,6.68235294 C0.800759752,5.26162983 1.44140009,3.93938748 2.41882353,2.88470588 C3.27523372,1.95440949 4.35594181,1.25932138 5.55764706,0.865882353 C6.07183383,0.682802909 6.60850277,0.570403219 7.15294118,0.531764706 C7.67837958,0.480902754 8.20632014,0.460476483 8.73411765,0.470588235 C9.33492057,0.509653924 9.92891979,0.620238884 10.5035294,0.8 C11.3344287,1.06157432 12.1154906,1.46085443 12.8141176,1.98117647 C13.8254502,2.74355546 14.6216012,3.75536444 15.1247059,4.91764706 C15.6462816,6.1195481 15.8488916,7.43570234 15.7129412,8.73882353 C15.5814916,10.527575 14.7918234,12.2041528 13.4964706,13.4447059 C12.7208051,14.1945507 11.790976,14.7662591 10.7717647,15.12 C9.91819543,15.4187634 9.01684828,15.5575549 8.11294118,15.5294118 Z M3.70823529,9.58117647 C3.57176471,9.58117647 3.43058824,9.58117647 3.29411765,9.58117647 C3.15764706,9.58117647 3.06352941,9.62823529 3.08705882,9.78823529 C3.14823529,10.1552941 3.18117647,10.5223529 3.27058824,10.8847059 C3.48397666,11.7487728 3.9491234,12.5300228 4.60705882,13.1294118 C5.39486945,13.8814278 6.4123951,14.3471032 7.49647059,14.4517647 C8.48192473,14.5860759 9.48502069,14.4221713 10.3764706,13.9811765 C12.0272826,13.2128428 13.0918609,11.5665877 13.1152941,9.74588235 C13.1152941,9.62352941 13.0776471,9.58588235 12.9694118,9.59058824 L12.3623529,9.59058824 C12.2264377,9.56871849 12.0871963,9.58167118 11.9576471,9.62823529 C11.8823529,9.67529412 11.8917647,9.84941176 11.8588235,9.97176471 C11.8588235,9.97176471 11.8588235,9.97176471 11.8588235,9.97176471 C11.6809166,10.5329571 11.2452154,10.9751358 10.6867093,11.1613045 C10.1282033,11.3474731 9.51433509,11.2551509 9.03529412,10.9129412 C8.67843038,10.6725728 8.42875182,10.303116 8.33882353,9.88235294 C8.30588235,9.71764706 8.20705882,9.72705882 8.08941176,9.72705882 C7.97176471,9.72705882 7.90117647,9.72705882 7.88235294,9.88235294 C7.85854511,10.011857 7.81572966,10.1371319 7.75529412,10.2541176 C7.41168621,10.9870446 6.61757727,11.3966579 5.82117647,11.2517647 C5.15547217,11.1608733 4.6038793,10.6901808 4.40941176,10.0470588 C4.35764706,9.90117647 4.36705882,9.68941176 4.26823529,9.62352941 C4.16941176,9.55764706 3.95294118,9.59529412 3.79764706,9.59058824 L3.70823529,9.58117647 Z M8.35764706,5.10117647 C8.17882353,5.28470588 8.03294118,5.46823529 7.85882353,5.61411765 C7.13830946,6.16382649 6.31868121,6.56964632 5.44470588,6.80941176 L3.65176471,7.38823529 C3.58783484,7.40838402 3.53398534,7.45213675 3.50117647,7.51058824 C3.37882353,7.88705882 3.26588235,8.26352941 3.15764706,8.64470588 C3.12470588,8.76235294 3.15764706,8.81882353 3.30823529,8.81411765 C3.62823529,8.81411765 3.95294118,8.81411765 4.27294118,8.81411765 C4.3552347,8.80201918 4.42776907,8.75366293 4.47058824,8.68235294 C4.71159741,8.21033351 5.14627145,7.86671766 5.66117647,7.74117647 C6.53839143,7.50635729 7.45297926,7.96264173 7.79294118,8.80470588 C7.85882353,8.97882353 7.96235294,8.98352941 8.10823529,8.99294118 C8.24733706,9.02122139 8.38536907,8.94002609 8.42823529,8.80470588 C8.47609377,8.66908387 8.54261567,8.54079162 8.62588235,8.42352941 C8.99824694,7.92343823 9.59903684,7.64659798 10.221126,7.68845107 C10.8432151,7.73030416 11.4015079,8.08512551 11.7035294,8.63058824 C11.755405,8.75569992 11.8844141,8.83079478 12.0188235,8.81411765 C12.2870588,8.81411765 12.56,8.81411765 12.8329412,8.81411765 C13.1058824,8.81411765 13.1058824,8.78117647 13.0447059,8.56470588 C12.9317647,8.16 12.7905882,7.76470588 12.6494118,7.36941176 C12.6218273,7.30667633 12.5687392,7.25872579 12.5035294,7.23764706 C11.8823529,7.01647059 11.2564706,6.80941176 10.6211765,6.58823529 C9.76564447,6.32901954 9.00275284,5.82913766 8.42352941,5.14823529 C8.40390213,5.12951529 8.38172077,5.11367147 8.35764706,5.10117647 Z M11.1811765,9.46823529 C11.1877858,9.18129946 11.0760554,8.90428219 10.8722192,8.70222616 C10.6683829,8.50017013 10.3903962,8.39087396 10.1035294,8.4 C9.81403333,8.39622364 9.53509185,8.50858763 9.32904762,8.71197893 C9.12300339,8.91537023 9.00703419,9.19283223 9.00705882,9.48235294 C9.01729338,10.0787267 9.50236713,10.5575279 10.0988235,10.56 C10.3899065,10.5679895 10.671328,10.455213 10.876339,10.2484193 C11.08135,10.0416255 11.1916858,9.75923822 11.1811765,9.46823529 L11.1811765,9.46823529 Z M7.2,9.46823529 C7.20261844,9.18166435 7.08896164,8.90627123 6.88499105,8.70496113 C6.68102046,8.50365102 6.40415893,8.39361953 6.11764706,8.4 C5.82816165,8.39242226 5.54771224,8.50116463 5.3390041,8.70191357 C5.13029596,8.9026625 5.01073685,9.17867408 5.00705882,9.46823529 C5.01478623,10.0760759 5.50975736,10.564755 6.11764706,10.5647059 C6.71328334,10.5595928 7.19488696,10.0779892 7.2,9.48235294 L7.2,9.46823529 Z" id="Shape"></path>
            </g>
        </g>
    </g>
</svg>

<svg width="16" height="16" xmlns="http://www.w3.org/2000/svg"><path d="M8.113 15.53a7.219 7.219 0 0 1-3.257-.66 7.247 7.247 0 0 1-3.407-3.082 7.153 7.153 0 0 1-.847-2.282A8.362 8.362 0 0 1 .58 6.682a7.228 7.228 0 0 1 1.84-3.797A7.393 7.393 0 0 1 5.558.865 6.028 6.028 0 0 1 7.153.533 13.69 13.69 0 0 1 8.734.47c.6.039 1.195.15 1.77.329.83.262 1.611.66 2.31 1.181a7.318 7.318 0 0 1 2.31 2.937 7.614 7.614 0 0 1 .589 3.82 7.252 7.252 0 0 1-2.217 4.707 7.421 7.421 0 0 1-2.724 1.675 7.355 7.355 0 0 1-2.66.41zM3.708 9.58h-.414c-.136 0-.23.047-.207.207.061.367.094.734.184 1.097a4.494 4.494 0 0 0 1.336 2.244 4.861 4.861 0 0 0 2.89 1.323 4.979 4.979 0 0 0 2.88-.47 4.739 4.739 0 0 0 2.738-4.236c0-.122-.037-.16-.146-.155h-.607a.814.814 0 0 0-.404.037c-.076.047-.066.221-.1.344a1.84 1.84 0 0 1-2.823.94 1.661 1.661 0 0 1-.696-1.03c-.033-.164-.132-.155-.25-.155-.117 0-.188 0-.207.155-.023.13-.066.255-.127.372a1.784 1.784 0 0 1-1.934.998 1.718 1.718 0 0 1-1.412-1.205c-.051-.146-.042-.358-.14-.423-.1-.066-.316-.029-.471-.033l-.09-.01zm4.65-4.48c-.18.184-.325.367-.5.513-.72.55-1.54.956-2.413 1.195l-1.793.58a.264.264 0 0 0-.15.122c-.123.376-.236.753-.344 1.134-.033.117 0 .174.15.17h.965a.278.278 0 0 0 .198-.133 1.821 1.821 0 0 1 1.19-.94 1.798 1.798 0 0 1 2.132 1.063c.066.174.17.179.315.188a.278.278 0 0 0 .32-.188c.048-.136.115-.264.198-.381a1.835 1.835 0 0 1 3.078.207c.051.125.18.2.315.183h.814c.273 0 .273-.033.212-.25-.113-.404-.254-.8-.396-1.195a.24.24 0 0 0-.145-.131c-.622-.222-1.248-.429-1.883-.65a4.659 4.659 0 0 1-2.197-1.44.287.287 0 0 0-.066-.047zm2.823 4.367A1.045 1.045 0 0 0 10.104 8.4a1.082 1.082 0 0 0-1.097 1.082c.01.597.495 1.076 1.092 1.078a1.054 1.054 0 0 0 1.082-1.092zm-3.981 0A1.059 1.059 0 0 0 6.118 8.4a1.082 1.082 0 0 0-1.11 1.068 1.11 1.11 0 0 0 1.11 1.097A1.092 1.092 0 0 0 7.2 9.482v-.014z" fill-rule="nonzero" fill="#FFF"/></svg>
